X:1
T:Title
%%score [ 1 2 3 4 ]
L:1/8
Q:1/4=60
M:4/4
K:Dmin
V:1 treble nm="s" snm="s"
V:2 treble nm="a" snm="a"
V:3 bass nm="t" snm="t"
V:4 bass nm="b" snm="b"
V:1
!p! A2 d2 A3 G | A2 F2 (GA) (GF) |!>(! E4 E2!>)! z2 |!p!!mp! G2 F z B2 A z |!f!!<(! d4 d3 e!<)! | %5
w: O, Guds Lamm, som|bort- tar värl- * dens *|syn- der,|fräls oss, fräls oss,|fräls fräls oss,|
 f2 e2!>(! ^c3 d |!mp! d4-!>)! d2 z2 | A2 d2 c3 A | c2 F2 (Bc) (BA) | G4 A2 z2 | %10
w: mil- de Her- re|Gud! *|O, Guds Lamm, som|bort- tar värl- * dens *|syn- der,|
!mp!!mf! B2 A z c3 B |!f! d2 e2 f3 e | (A2 d)_d c2"^dim." F2 | B2 A2 G3 F | F4- F2 z2 | %15
w: hör oss, hör oss,|hör oss, hör oss,|mil- * de Her- re,|mil- de Her- re|Gud! *|
!pp! A2 c2 A3 G | A2 F2 (GA) (GF) | _E4 D2 z2 |!p!!mp! G2 F z B2 A z | d2!<(! d2 d3 e!<)! | %20
w: O, Guds Lamm, som|bort- tar värl- * dens *|syn- der,|giv oss, giv oss,|giv oss frid, och|
 f2 e2!>(! ^c3 d!>)! |!ppp! d6 D2 | B4 B2!>(! B2 |!pp! A2!>)! A2 A2 z2 |] %24
w: din väl- sig- nel-|se, din|frid och vläl-|sig- nel- se!|
V:2
!p! F4 F3 E | E4 D4 |!>(! D4 ^C2!>)! z2 |!p!!mp! DEF z (DE)^F z |!f!!<(! G3 ^F G4!<)! | %5
w: O, Guds *|Lamm, o,|Guds Lamm,|fräls * oss, fräls * oss,|fräls oss, fräls,|
 A3 G!>(! F2 E2 |!mp! D4- D2!>)! z2 | F6 (EF) | (E2 D2) D3 D | (E2 D2 ^C2) z2 | %10
w: mil- de Her- re|Gud! *|O, Guds *|Lamm, * o, Guds|Lamm, * *|
!mp!!mf! D2 D z _E3 D |!f! A2 G2 (AB AG-) | (G^F) =F2 (E"^dim."F/E/ D2- | DE F4) E2 | F4- F2 z2 | %15
w: hör oss, hör oss,|hör oss, mil- * * *|* * de Her- * * *|* * * re|Gud! *|
!pp! F4 (F3 E) | (E3 D) (_E3 D- | D C2) B, A,2 z2 |!p!!mp! (DE)F z (DE)^F z | G3!<(! ^F G4!<)! | %20
w: O, Guds *|Lamm, * o, *|* * Guds Lamm,|giv * oss, giv * oss,|giv oss frid|
 A3 G!>(! F2 E2!>)! |!ppp! D6 D2 | D4 _E2!>(! D2- |!pp! D=B,!>)! ^C2 D2 z2 |] %24
w: och väl- sig- nel-|se, den|frid och väl-|* sig- nel- se!|
V:3
!p! D2 C2 =B,2 _B,2 | A,4 (B,C) B,A, |!>(! (G,2 ^G,2) A,2!>)! z2 |!p!!mp! B,2 A, z B,2 D z | %4
w: O, Guds Lamm, som|bort- tar * värl- dens|syn- * der,|fräls oss, fräls oss,|
!f!!<(! (D2 C4) B,2!<)! | C2 B,2!>(! (A,2 G,2- |!mp! G,F, E,)F, F,2!>)! z2 | A,2 (B,A,) G,3 F, | %8
w: fräls * oss,|mil- de Her- *|* * * re Gud!|O, Guds * Lamm, som|
 A,2 D2 (B,A,) (G,F,) | E,4 E,2 z2 |!mp!!mf! G,2 ^F, z G,3 G, |!f! A,2 B,2 A,2 B,2 | %12
w: bort- tar värl- * dens *|syn- der,|hör oss, hör oss,|hör oss, mil- de|
 A,2 G,2 A,2"^dim." (DC) | (B,2 C4 B,2- | B,A, G,)A, A,2 z2 |!pp! D4 D4 | ^C2 A,2 B,=C B,A, | %17
w: Her- re, hör oss, *|Her- * *|* * * re Gud!|O, Guds|Lamm, som bort- tar värl- dens|
 G,4 ^F,2 z2 |!p!!mp! B,2 A, z B,2 D z | D2!<(! C4 B,2!<)! | A,2 B,2!>(! (A,2 G,2-!>)! | %21
w: syn- der,|giv oss, giv oss,|giv * oss|din väl- sig- *|
!ppp! G,F, E,)F, F,2 F,2 | G,4 G,2!>(! F,2 |!pp! E,2!>)! E,2 ^F,2 z2 |] %24
w: * * * nel- se, din|frid och väl-|sig- nel- se!|
V:4
!p! D,4 D,4 | (^C,2 D,2) G,2 (G,,A,,) |!>(! (B,,4 A,,2)!>)! z2 |!p!!mp! G,,2 D, z G,2 D, z | %4
w: O, Guds|Lamm, * o, Guds *|Lamm, *|fräls oss, fräls oss,|
!f!!<(! (B,2 A,2) G,4!<)! | F,2 G,2!>(! A,2 A,,2 |!mp! D,4-!>)! D,2 z2 | D,2 B,,2 C,3 D, | %8
w: fräls * oss,|mil- de Her- re|Gud! *|O, Guds Lamm, som|
 A,,2 (B,,A,,) G,,3 B,, | (C,2 B,,2) A,,2 z2 |!mp!!mf! G,,2 D, z C,3 G, |!f! F,2 (E,D,) (^C,4 | %12
w: bort- tar * värl- dens|syn- * der,|hör oss, hör oss,|hör oss, * mil-|
 (D,)D) B,2 (C2"^dim." B,A, | G,2 A,B, C2) C,2 | F,4- F,2 z2 |!pp! D2 C2 =B,2 _B,2 | %16
w: * * de Her- * *|* * * * re|Gud! *|O, Guds Lamm, som|
 A,2 D,2 G,2 G,,B,, | C,4 D,2 z2 |!p!!mp! G,,2 D, z G,2 D, z | B,2!<(! A,2 G,4!<)! | %20
w: bort- tar värl- dens *|syn- der,|giv oss, giv oss,|giv oss frid|
 F,2 G,2!>(! A,2 A,,2!>)! |!ppp! D,4- D,C, B,,2 | G,,4 G,,4 |!pp!!>(! A,,2!>)! A,,2 [D,,D,]2 z2 |] %24
w: och väl- sig- nel-|se, * din frid|och väl-|sig- nel- se!|

